brandFactory_export/2.Regular/Abrir mail correo_2regular.svg

<?xml version="1.0" encoding="UTF-8"?>
<svg width="24px" height="24px" viewBox="0 0 24 24" version="1.1" xmlns="http://www.w3.org/2000/svg" xmlns:xlink="http://www.w3.org/1999/xlink">
    <title>2.Regular/Abrir mail correo_2regular</title>
    <g id="Symbols" stroke="none" stroke-width="1" fill="none" fill-rule="evenodd">
        <g id="2.Regular/Abrir-mail-correo_2regular" fill="#5CB615" fill-rule="nonzero">
            <path d="M21.1462185,22.1563025 C20.4369748,22.1697479 17.2201681,22.1731092 12.3193277,22.1697479 L12.2689076,22.1697479 C7.97310924,22.1697479 3.27731092,22.1697479 2.48067227,22.1563025 C2.20168067,22.1529412 1.83193277,22.0991597 1.64705882,21.8840336 C1.44201681,21.6420168 1.48907563,21.2420168 1.48907563,21.2420168 L1.49915966,21.1815126 L1.49243697,11.097479 L9.66722689,16.2470588 C9.7512605,16.3109244 10.5411765,16.8588235 11.6605042,16.8588235 C12.3361345,16.8588235 12.9815126,16.6605042 13.5663866,16.2773109 L22.1310924,10.9394958 L22.1210084,21.1176471 L22.1310924,21.2420168 C22.1310924,21.2453782 22.1815126,21.6352941 21.9798319,21.8773109 C21.7983193,22.0991597 21.4252101,22.1495798 21.1462185,22.1563025 L21.1462185,22.1563025 Z M10.6789916,2.80840336 C11.0218487,2.59663866 11.4184874,2.48571429 11.8184874,2.48235294 C12.4605042,2.48235294 12.9411765,2.80504202 12.9714286,2.82857143 L21.8016807,8.40504202 C21.9831933,8.53277311 22.0907563,8.82184874 22.1176471,9.20504202 L12.7630252,15.0369748 C12.4369748,15.2588235 12.0537815,15.3798319 11.6605042,15.3831933 C11.0252101,15.3831933 10.5478992,15.0571429 10.507563,15.0302521 L1.49243697,9.34957983 L1.49243697,9.34621849 C1.50252101,8.88235294 1.61680672,8.54957983 1.78823529,8.42521008 L10.6789916,2.80840336 Z M23.6168067,9.3092437 C23.589916,8.10588235 23.0890756,7.49747899 22.6386555,7.18151261 L13.805042,1.60504202 C13.210084,1.21512605 12.5142857,1.00672269 11.8016807,1.00336134 C10.6890756,1.00336134 9.90252101,1.54117647 9.85210084,1.58151261 L1.11596639,7.09747899 L0.951260504,7.20168067 C0.537815126,7.50084034 0.0336134454,8.1092437 0.00672268908,9.32941176 L0.0168067227,21.0739496 C-0.0134453782,21.3361345 -0.0571428571,22.1529412 0.497478992,22.8218487 C0.796638655,23.1815126 1.37815126,23.6117647 2.45378151,23.6352941 C3.05882353,23.6453782 5.83865546,23.6487395 8.99831933,23.6487395 L12.3159664,23.6487395 C14.6352941,23.6487395 20.1478992,23.6521008 21.1731092,23.6352941 C22.2453782,23.6151261 22.8268908,23.1815126 23.1260504,22.8218487 C23.6806723,22.1529412 23.6403361,21.3361345 23.610084,21.0739496 C23.6067227,21.0705882 23.6168067,9.3092437 23.6168067,9.3092437 Z" id="Abrir-mail-correo_2regular"></path>
        </g>
    </g>
</svg>

<svg width="24" height="24" viewBox="0 0 24 24" xmlns="http://www.w3.org/2000/svg"><path d="M21.146 22.156c-.709.014-3.926.017-8.827.014h-.05c-4.296 0-8.992 0-9.788-.014-.28-.003-.65-.057-.834-.272-.205-.242-.158-.642-.158-.642l.01-.06-.007-10.085 8.175 5.15c.084.064.874.612 1.994.612.675 0 1.32-.198 1.905-.582l8.565-5.338-.01 10.179.01.124c0 .003.05.393-.151.635-.182.222-.555.273-.834.28zM10.68 2.808c.343-.211.74-.322 1.14-.326.642 0 1.122.323 1.152.347l8.83 5.576c.182.128.29.417.317.8l-9.355 5.832a1.99 1.99 0 01-1.102.346c-.636 0-1.113-.326-1.153-.353L1.492 9.35v-.004c.01-.464.125-.796.296-.92l8.891-5.618zM23.617 9.31c-.027-1.203-.528-1.812-.978-2.127l-8.834-5.577a3.685 3.685 0 00-2.003-.602c-1.113 0-1.9.538-1.95.579L1.116 7.097l-.165.105C.538 7.5.034 8.109.007 9.329l.01 11.745c-.03.262-.074 1.079.48 1.748.3.36.881.79 1.957.813.605.01 3.385.014 6.544.014h3.318c2.32 0 7.832.003 8.857-.014 1.072-.02 1.654-.453 1.953-.813.555-.67.514-1.486.484-1.748-.003-.003.007-11.765.007-11.765z" fill="#5CB615" fill-rule="nonzero"/></svg>
